X: 2
T: Australian Waters
R: jig
M: 6/8
L: 1/8
K: Dmaj
dAG FED|~=c3 ed^c|dAF GFE|FED gfe|!dAG FED|AB=c Ae^c|dAF GFE|D^CE D3:|!|:dcd efg|fed cBA|dcd efg|fdc def|1 ~g3 faf|!ecA ABc|dAF GFE|DCE D3:|2 gbb faa|efd cBA|!dAF GFE|FED gfe||


Tune 2607	Setting 27209

